X:1365
T:Devil's Polska
A:Dalarna, Bingsj
M:3/4
O:Sweden
R:Polska
Z:Richard Robinson 
%%TUNEURL: http://www.leeds.ac.uk/music/Info/RRTuneBk/gettune/00000b26.html
%%ID:00000b26
K:A min
a2 e2 c2|B/c/d/B/ c2 B2| \
A/B/A/^G/ A>B cc|d2^fd e3 e|\
aa ee cc| B/c/d/B/ c2 B2|
A/B/A/^G/ A>B cc|1 BA/^G/ A3 e :|2 BA/^G/ A3 E |:\
A^G/A/ BA/B/ cB/c/|dc/d/ [eA][eA] [f2A2]|
e>d cB Ac|B<^G E3 E|\
A^G/A/ BA/B/ cB/c/|dc/d/ [eA][eA] [a2A2]|\
g>f ed cA|E/^G/B/G/|1 A3 E :|2 A3 A |:
[A/a/]b/a/^g/ ae cA|[g/B/]a/g/^f/ gd BG|\
[f3/A3/]g/f/ ed cB|1 A^G/A/ BA/B/ e2 :|2 \
A^G/A/ BA/B/ A2 :|
